src/lib/packages/icons/src/assets/line/grid-dividers.svg

<svg xmlns="http://www.w3.org/2000/svg" width="24" height="24" fill="none"><path fill="currentColor" d="M21 3.75H3a.75.75 0 0 1 0-1.5h18a.75.75 0 0 1 0 1.5ZM21.75 14a.75.75 0 0 0-.75-.75H3a.75.75 0 0 0 0 1.5h18a.75.75 0 0 0 .75-.75Zm-14-5.5v-1c0-1.409-.841-2.25-2.25-2.25h-1c-1.409 0-2.25.841-2.25 2.25v1c0 1.409.841 2.25 2.25 2.25h1c1.409 0 2.25-.841 2.25-2.25ZM5.5 6.75c.589 0 .75.161.75.75v1c0 .589-.161.75-.75.75h-1c-.589 0-.75-.161-.75-.75v-1c0-.589.161-.75.75-.75h1Zm9.25 1.75v-1c0-1.409-.841-2.25-2.25-2.25h-1c-1.409 0-2.25.841-2.25 2.25v1c0 1.409.841 2.25 2.25 2.25h1c1.409 0 2.25-.841 2.25-2.25ZM12.5 6.75c.589 0 .75.161.75.75v1c0 .589-.161.75-.75.75h-1c-.589 0-.75-.161-.75-.75v-1c0-.589.161-.75.75-.75h1Zm9.25 1.75v-1c0-1.409-.841-2.25-2.25-2.25h-1c-1.409 0-2.25.841-2.25 2.25v1c0 1.409.841 2.25 2.25 2.25h1c1.409 0 2.25-.841 2.25-2.25ZM19.5 6.75c.589 0 .75.161.75.75v1c0 .589-.161.75-.75.75h-1c-.589 0-.75-.161-.75-.75v-1c0-.589.161-.75.75-.75h1ZM7.75 19.5v-1c0-1.409-.841-2.25-2.25-2.25h-1c-1.409 0-2.25.841-2.25 2.25v1c0 1.409.841 2.25 2.25 2.25h1c1.409 0 2.25-.841 2.25-2.25ZM5.5 17.75c.589 0 .75.161.75.75v1c0 .589-.161.75-.75.75h-1c-.589 0-.75-.161-.75-.75v-1c0-.589.161-.75.75-.75h1Zm9.25 1.75v-1c0-1.409-.841-2.25-2.25-2.25h-1c-1.409 0-2.25.841-2.25 2.25v1c0 1.409.841 2.25 2.25 2.25h1c1.409 0 2.25-.841 2.25-2.25Zm-2.25-1.75c.589 0 .75.161.75.75v1c0 .589-.161.75-.75.75h-1c-.589 0-.75-.161-.75-.75v-1c0-.589.161-.75.75-.75h1Zm9.25 1.75v-1c0-1.409-.841-2.25-2.25-2.25h-1c-1.409 0-2.25.841-2.25 2.25v1c0 1.409.841 2.25 2.25 2.25h1c1.409 0 2.25-.841 2.25-2.25Zm-2.25-1.75c.589 0 .75.161.75.75v1c0 .589-.161.75-.75.75h-1c-.589 0-.75-.161-.75-.75v-1c0-.589.161-.75.75-.75h1Z"/></svg>

<svg width="24" height="24" viewBox="0 0 24 24" fill="none" xmlns="http://www.w3.org/2000/svg">
<path d="M21 3.75H3C2.586 3.75 2.25 3.414 2.25 3C2.25 2.586 2.586 2.25 3 2.25H21C21.414 2.25 21.75 2.586 21.75 3C21.75 3.414 21.414 3.75 21 3.75ZM21.75 14C21.75 13.586 21.414 13.25 21 13.25H3C2.586 13.25 2.25 13.586 2.25 14C2.25 14.414 2.586 14.75 3 14.75H21C21.414 14.75 21.75 14.414 21.75 14ZM7.75 8.5V7.5C7.75 6.091 6.909 5.25 5.5 5.25H4.5C3.091 5.25 2.25 6.091 2.25 7.5V8.5C2.25 9.909 3.091 10.75 4.5 10.75H5.5C6.909 10.75 7.75 9.909 7.75 8.5ZM5.5 6.75C6.089 6.75 6.25 6.911 6.25 7.5V8.5C6.25 9.089 6.089 9.25 5.5 9.25H4.5C3.911 9.25 3.75 9.089 3.75 8.5V7.5C3.75 6.911 3.911 6.75 4.5 6.75H5.5ZM14.75 8.5V7.5C14.75 6.091 13.909 5.25 12.5 5.25H11.5C10.091 5.25 9.25 6.091 9.25 7.5V8.5C9.25 9.909 10.091 10.75 11.5 10.75H12.5C13.909 10.75 14.75 9.909 14.75 8.5ZM12.5 6.75C13.089 6.75 13.25 6.911 13.25 7.5V8.5C13.25 9.089 13.089 9.25 12.5 9.25H11.5C10.911 9.25 10.75 9.089 10.75 8.5V7.5C10.75 6.911 10.911 6.75 11.5 6.75H12.5ZM21.75 8.5V7.5C21.75 6.091 20.909 5.25 19.5 5.25H18.5C17.091 5.25 16.25 6.091 16.25 7.5V8.5C16.25 9.909 17.091 10.75 18.5 10.75H19.5C20.909 10.75 21.75 9.909 21.75 8.5ZM19.5 6.75C20.089 6.75 20.25 6.911 20.25 7.5V8.5C20.25 9.089 20.089 9.25 19.5 9.25H18.5C17.911 9.25 17.75 9.089 17.75 8.5V7.5C17.75 6.911 17.911 6.75 18.5 6.75H19.5ZM7.75 19.5V18.5C7.75 17.091 6.909 16.25 5.5 16.25H4.5C3.091 16.25 2.25 17.091 2.25 18.5V19.5C2.25 20.909 3.091 21.75 4.5 21.75H5.5C6.909 21.75 7.75 20.909 7.75 19.5ZM5.5 17.75C6.089 17.75 6.25 17.911 6.25 18.5V19.5C6.25 20.089 6.089 20.25 5.5 20.25H4.5C3.911 20.25 3.75 20.089 3.75 19.5V18.5C3.75 17.911 3.911 17.75 4.5 17.75H5.5ZM14.75 19.5V18.5C14.75 17.091 13.909 16.25 12.5 16.25H11.5C10.091 16.25 9.25 17.091 9.25 18.5V19.5C9.25 20.909 10.091 21.75 11.5 21.75H12.5C13.909 21.75 14.75 20.909 14.75 19.5ZM12.5 17.75C13.089 17.75 13.25 17.911 13.25 18.5V19.5C13.25 20.089 13.089 20.25 12.5 20.25H11.5C10.911 20.25 10.75 20.089 10.75 19.5V18.5C10.75 17.911 10.911 17.75 11.5 17.75H12.5ZM21.75 19.5V18.5C21.75 17.091 20.909 16.25 19.5 16.25H18.5C17.091 16.25 16.25 17.091 16.25 18.5V19.5C16.25 20.909 17.091 21.75 18.5 21.75H19.5C20.909 21.75 21.75 20.909 21.75 19.5ZM19.5 17.75C20.089 17.75 20.25 17.911 20.25 18.5V19.5C20.25 20.089 20.089 20.25 19.5 20.25H18.5C17.911 20.25 17.75 20.089 17.75 19.5V18.5C17.75 17.911 17.911 17.75 18.5 17.75H19.5Z" fill="currentColor"/>
</svg>
